public/images/svg/002-sky-3.svg

<svg xmlns="http://www.w3.org/2000/svg" style="isolation:isolate" viewBox="0 0 511 511"><defs><clipPath id="a"><path d="M0 0h511v511H0z"/></clipPath></defs><g clip-path="url(#a)"><path class="cloud1" d="M408.259 119.154c-27.031 0-51.377 11.435-68.492 29.733-9.163-10.557-22.687-17.233-37.769-17.233-27.614 0-50.002 22.388-50.002 50.002 0 .413.006.832.017 1.246C223.476 188.69 202 213.914 202 244.157c0 34.512 27.983 62.5 62.501 62.5h143.758c51.775 0 93.741-41.976 93.741-93.75 0-51.781-41.966-93.753-93.741-93.753z" fill="#D7DCE2"/><path class="cloud1" d="M466.365 139.333c12.63 15.971 20.185 36.16 20.185 58.106 0 51.78-41.976 93.756-93.762 93.756H249.035a62.218 62.218 0 0 1-35.78-11.258c11.298 16.151 30.038 26.719 51.247 26.719h143.757c51.775 0 93.741-41.976 93.741-93.751 0-29.829-13.932-56.401-35.635-73.572z" fill="#CCD1D9"/><path class="cloud2" d="M98.839 122.077c26.183 0 49.764 11.084 66.346 28.806 8.877-10.227 21.98-16.696 36.586-16.696 26.759 0 48.447 21.69 48.447 48.443 0 .406-.011.807-.016 1.208 27.642 5.607 48.454 30.045 48.454 59.344 0 33.436-27.111 60.553-60.552 60.553H98.839C48.668 303.735 8 263.077 8 212.907c0-50.167 40.668-90.83 90.839-90.83z" fill="#AAB2BC"/><path class="cloud2" d="M42.534 141.627c-12.236 15.478-19.544 35.033-19.544 56.3 0 50.16 40.667 90.827 90.828 90.827h139.27a60.273 60.273 0 0 0 34.665-10.908c-10.946 15.649-29.102 25.887-49.649 25.887H98.839C48.668 303.733 8 263.076 8 212.906c0-28.899 13.497-54.644 34.534-71.279z" fill="#949DA8"/></g></svg>

<?xml version="1.0" standalone="no"?><!-- Generator: Gravit.io --><svg xmlns="http://www.w3.org/2000/svg" xmlns:xlink="http://www.w3.org/1999/xlink" style="isolation:isolate" viewBox="0 0 511 511"><defs><clipPath id="_clipPath_bGTkfxSOuOuck9CgioXsceJId521jTZ4"><rect width="511" height="511"/></clipPath></defs><g clip-path="url(#_clipPath_bGTkfxSOuOuck9CgioXsceJId521jTZ4)"><g id="组"><path class="cloud1" d=" M 408.259 119.154 C 381.228 119.154 356.882 130.589 339.767 148.887 C 330.604 138.33 317.08 131.654 301.998 131.654 C 274.384 131.654 251.996 154.042 251.996 181.656 C 251.996 182.069 252.002 182.488 252.013 182.902 C 223.476 188.69 202 213.914 202 244.157 C 202 278.669 229.983 306.657 264.501 306.657 L 408.259 306.657 C 460.034 306.657 502 264.681 502 212.907 C 502 161.126 460.034 119.154 408.259 119.154 Z " fill="rgb(215,220,226)"/><path class="cloud1" d=" M 466.365 139.333 C 478.995 155.304 486.55 175.493 486.55 197.439 C 486.55 249.219 444.574 291.195 392.788 291.195 L 249.035 291.195 C 235.727 291.195 223.392 287.027 213.255 279.937 C 224.553 296.088 243.293 306.656 264.502 306.656 L 408.259 306.656 C 460.034 306.656 502 264.68 502 212.905 C 502 183.076 488.068 156.504 466.365 139.333 Z " fill="rgb(204,209,217)"/></g><g id="组"><path class="cloud2" d=" M 98.839 122.077 C 125.022 122.077 148.603 133.161 165.185 150.883 C 174.062 140.656 187.165 134.187 201.771 134.187 C 228.53 134.187 250.218 155.877 250.218 182.63 C 250.218 183.036 250.207 183.437 250.202 183.838 C 277.844 189.445 298.656 213.883 298.656 243.182 C 298.656 276.618 271.545 303.735 238.104 303.735 L 98.839 303.735 C 48.668 303.735 8 263.077 8 212.907 C 8 162.74 48.668 122.077 98.839 122.077 Z " fill="rgb(170,178,188)"/><path class="cloud2"  d=" M 42.534 141.627 C 30.298 157.105 22.99 176.66 22.99 197.927 C 22.99 248.087 63.657 288.754 113.818 288.754 L 253.088 288.754 C 265.981 288.754 277.932 284.716 287.753 277.846 C 276.807 293.495 258.651 303.733 238.104 303.733 L 98.839 303.733 C 48.668 303.733 8 263.076 8 212.906 C 8 184.007 21.497 158.262 42.534 141.627 Z " fill="rgb(148,157,168)"/></g></g></svg>
